src/pos-icons/image-plus.svg

<svg height="24" viewBox="0 0 24 24" width="24" xmlns="http://www.w3.org/2000/svg"><path d="m5 3a2 2 0 0 0 -2 2v14a2 2 0 0 0 2 2h9.09c-.06-.33-.09-.66-.09-1 0-.68.12-1.36.35-2h-9.35l3.5-4.5 2.5 3 3.5-4.5 2.23 2.97c.97-.63 2.11-.97 3.27-.97.34 0 .67.03 1 .09v-9.09c0-1.11-.9-2-2-2zm14 13v3h-3v2h3v3h2v-3h3v-2h-3v-3z"/></svg>

<?xml version="1.0" encoding="UTF-8"?><!DOCTYPE svg PUBLIC "-//W3C//DTD SVG 1.1//EN" "http://www.w3.org/Graphics/SVG/1.1/DTD/svg11.dtd"><svg xmlns="http://www.w3.org/2000/svg" xmlns:xlink="http://www.w3.org/1999/xlink" version="1.1" id="mdi-image-plus" width="24" height="24" viewBox="0 0 24 24"><path d="M5,3A2,2 0 0,0 3,5V19A2,2 0 0,0 5,21H14.09C14.03,20.67 14,20.34 14,20C14,19.32 14.12,18.64 14.35,18H5L8.5,13.5L11,16.5L14.5,12L16.73,14.97C17.7,14.34 18.84,14 20,14C20.34,14 20.67,14.03 21,14.09V5C21,3.89 20.1,3 19,3H5M19,16V19H16V21H19V24H21V21H24V19H21V16H19Z" /></svg>
